Sources/FrostedUI/Resources/Icons.xcassets/arrowUpRightFromSquareFlush24.imageset/arrow-up-right-from-square-flush-24.svg

<svg width="24" height="24" viewBox="0 0 24 24" fill="none" xmlns="http://www.w3.org/2000/svg" data-fui-icon="true">
  <path
    d="M9.25 3C9.66421 3 10 3.33579 10 3.75C10 4.16421 9.66421 4.5 9.25 4.5H6.9502C6.37777 4.5 5.99314 4.50024 5.69727 4.52441C5.41027 4.54788 5.27315 4.59059 5.18262 4.63672C4.9475 4.75654 4.75654 4.9475 4.63672 5.18262C4.59059 5.27315 4.54788 5.41027 4.52441 5.69727C4.50024 5.99314 4.5 6.37777 4.5 6.9502V17.0498C4.5 17.6222 4.50024 18.0068 4.52441 18.3027C4.54788 18.5898 4.5906 18.7269 4.63672 18.8174C4.75657 19.0525 4.94755 19.2435 5.18262 19.3633C5.27315 19.4094 5.41027 19.4521 5.69727 19.4756C5.99314 19.4998 6.37777 19.5 6.9502 19.5H17.0498C17.6222 19.5 18.0068 19.4998 18.3027 19.4756C18.5898 19.4521 18.7269 19.4094 18.8174 19.3633C19.0525 19.2435 19.2435 19.0525 19.3633 18.8174C19.4094 18.7269 19.4521 18.5898 19.4756 18.3027C19.4998 18.0068 19.5 17.6222 19.5 17.0498V14.75C19.5 14.3358 19.8358 14 20.25 14C20.6642 14 21 14.3358 21 14.75V17.0498C21 17.5975 21.001 18.0537 20.9707 18.4248C20.9397 18.8045 20.8719 19.1609 20.7002 19.498C20.4366 20.0155 20.0155 20.4366 19.498 20.7002C19.1609 20.8719 18.8045 20.9397 18.4248 20.9707C18.0537 21.001 17.5975 21 17.0498 21H6.9502C6.40252 21 5.94633 21.001 5.5752 20.9707C5.19547 20.9397 4.83909 20.8719 4.50195 20.7002C3.98442 20.4366 3.56343 20.0154 3.2998 19.498C3.12809 19.1609 3.06033 18.8045 3.0293 18.4248C2.99897 18.0537 3 17.5975 3 17.0498V6.9502C3 6.40252 2.99897 5.94632 3.0293 5.5752C3.06033 5.19547 3.12809 4.83909 3.2998 4.50195C3.56345 3.98449 3.98449 3.56345 4.50195 3.2998C4.83909 3.12809 5.19547 3.06033 5.5752 3.0293C5.94632 2.99897 6.40252 3 6.9502 3H9.25ZM20.25 3C20.6642 3 21 3.33579 21 3.75V10.25C21 10.6642 20.6642 11 20.25 11C19.8358 11 19.5 10.6642 19.5 10.25V5.56055L11.5303 13.5303C11.2374 13.8232 10.7626 13.8232 10.4697 13.5303C10.1768 13.2374 10.1768 12.7626 10.4697 12.4697L18.4395 4.5H13.75C13.3358 4.5 13 4.16421 13 3.75C13 3.33579 13.3358 3 13.75 3H20.25Z"
    fill="currentColor"
  />
</svg>

<svg xmlns="http://www.w3.org/2000/svg" width="24" height="24" fill="none" data-fui-icon="true" viewBox="0 0 24 24"><path fill="currentColor" d="M9.25 3a.75.75 0 0 1 0 1.5h-2.3c-.572 0-.957 0-1.253.024-.287.024-.424.067-.514.113-.236.12-.426.31-.546.546-.046.09-.09.227-.113.514-.024.296-.024.68-.024 1.253v10.1c0 .572 0 .957.024 1.253.024.287.067.424.113.514.12.235.31.427.546.546.09.046.227.09.514.113.296.024.68.024 1.253.024h10.1c.572 0 .957 0 1.253-.024.287-.024.424-.067.514-.113.235-.12.427-.31.546-.546.046-.09.09-.227.113-.514.024-.296.024-.68.024-1.253v-2.3a.75.75 0 0 1 1.5 0v2.3c0 .547.001 1.004-.03 1.375-.03.38-.098.736-.27 1.073a2.75 2.75 0 0 1-1.202 1.202c-.337.172-.694.24-1.073.27-.371.031-.828.03-1.375.03H6.95c-.547 0-1.004.001-1.375-.03-.38-.03-.736-.098-1.073-.27A2.75 2.75 0 0 1 3.3 19.498c-.172-.337-.24-.694-.27-1.073-.031-.371-.03-.828-.03-1.375V6.95c0-.547-.001-1.004.03-1.375.03-.38.098-.736.27-1.073A2.75 2.75 0 0 1 4.502 3.3c.337-.172.693-.24 1.073-.27.371-.031.828-.03 1.375-.03zm11 0a.75.75 0 0 1 .75.75v6.5a.75.75 0 0 1-1.5 0V5.56l-7.97 7.97a.75.75 0 1 1-1.06-1.06l7.97-7.97h-4.69a.75.75 0 0 1 0-1.5z"/></svg>
